svgs/light/cart-arrow-down.svg

<svg xmlns="http://www.w3.org/2000/svg" viewBox="0 0 576 512"><!-- Font Awesome Pro 6.0.0-alpha2 by @fontawesome - https://fontawesome.com License - https://fontawesome.com/license (Commercial License) --><path d="M184.003 400C153.075 400 128.002 425.072 128.002 456S153.075 512 184.003 512S240.004 486.928 240.004 456S214.932 400 184.003 400ZM184.003 480C170.769 480 160.003 469.232 160.003 456C160.003 442.766 170.769 432 184.003 432S208.004 442.766 208.004 456C208.004 469.232 197.238 480 184.003 480ZM569.854 76.719C563.854 68.75 554.198 64 544.01 64H107.311L95.595 12.469C93.939 5.156 87.47 0 80.001 0H16C7.156 0 0 7.156 0 16S7.156 32 16 32H67.22L144.409 371.531C146.065 378.844 152.534 384 160.003 384H496.009C504.853 384 512.009 376.844 512.009 368S504.853 352 496.009 352H172.784L165.509 320H476.227C497.79 320 516.853 306.125 522.541 286.25L574.823 103.188C577.448 94.031 575.635 84.406 569.854 76.719ZM491.79 277.438C490.008 283.656 483.603 288 476.227 288H160.003C159.403 288 158.894 288.275 158.311 288.34L114.57 95.934L304.006 95.246V201.375L267.317 164.688C261.067 158.438 250.942 158.438 244.692 164.688C238.442 170.938 238.442 181.063 244.692 187.312L308.693 251.312C311.818 254.438 315.912 256 320.006 256C324.1 256 328.193 254.438 331.319 251.312L395.32 187.312C401.57 181.062 401.57 170.937 395.32 164.688C389.07 158.438 378.944 158.438 372.694 164.688L336.006 201.375V95.129L544.072 94.375L491.79 277.438ZM456.008 400C425.08 400 400.007 425.072 400.007 456S425.08 512 456.008 512S512.009 486.928 512.009 456S486.937 400 456.008 400ZM456.008 480C442.774 480 432.008 469.232 432.008 456C432.008 442.766 442.774 432 456.008 432C469.243 432 480.009 442.766 480.009 456C480.009 469.232 469.243 480 456.008 480Z"/></svg>

<svg xmlns="http://www.w3.org/2000/svg" viewBox="0 0 576 512"><!--! Font Awesome Pro 6.0.0-alpha3 by @fontawesome - https://fontawesome.com License - https://fontawesome.com/license (Commercial License) --><path d="M184 400c-30.93 0-56 25.07-56 56S153.1 512 184 512s56-25.07 56-56S214.9 400 184 400zM184 480c-13.23 0-24-10.77-24-24c0-13.23 10.77-24 24-24s24 10.77 24 24C208 469.2 197.2 480 184 480zM569.9 76.72C563.9 68.75 554.2 64 544 64H107.3L95.6 12.47C93.94 5.156 87.47 0 80 0H16C7.156 0 0 7.156 0 16S7.156 32 16 32h51.22l77.19 339.5C146.1 378.8 152.5 384 160 384h336c8.844 0 16-7.156 16-16S504.9 352 496 352h-323.2L165.5 320h310.7c21.56 0 40.63-13.88 46.31-33.75l52.28-183.1C577.4 94.03 575.6 84.41 569.9 76.72zM491.8 277.4C490 283.7 483.6 288 476.2 288H160C159.4 288 158.9 288.3 158.3 288.3L114.6 95.93l189.4-.6875v106.1L267.3 164.7c-6.25-6.25-16.38-6.25-22.63 0c-6.25 6.25-6.25 16.38 0 22.62l64 64C311.8 254.4 315.9 256 320 256c4.094 0 8.188-1.562 11.31-4.688l64-64c6.25-6.25 6.25-16.38 0-22.62c-6.25-6.25-16.38-6.25-22.63 0l-36.69 36.69V95.13l208.1-.7539L491.8 277.4zM456 400c-30.93 0-56 25.07-56 56S425.1 512 456 512s56-25.07 56-56S486.9 400 456 400zM456 480c-13.23 0-24-10.77-24-24c0-13.23 10.77-24 24-24c13.23 0 24 10.77 24 24C480 469.2 469.2 480 456 480z"/></svg>
